X:310
T: FRUH FRUH DES MORGENS FRUH
N: E1460
O: Europa, Mitteleuropa, Deutschland, suedwestlicher Schwarzwald
R: Staende -, Jaeger - Lied
M: 3/4
L: 1/16
K: F
 | c2B2A2c2f4 | c4B2c2A4 |
c2B2A2c2f4 | c4B2c2A4 |
F2d2d4f2d2 | c4d4c4 |
c2B2B4c4 | A3GA2B2c4 |
F2A2c4B2c2 | A8z4

@@@ Tune index: 4994
